src/topics/icons/azure.svg

<svg height="169" preserveAspectRatio="xMidYMid" viewBox="0 0 256 169" width="256" xmlns="http://www.w3.org/2000/svg"><path d="m152.000362 95.1993124c-6.400015 0-12.000333 3.9997047-15.200341 9.6000226h-94.4002248c-16.0000381 0-28.8000686-13.5997274-28.8000686-29.5997655s12.8000305-29.5997657 28.8000686-29.5997657h13.5997276c0-3.2000076 1.6000038-6.4000152 2.4003105-9.6000228.7996971-.7996972.7996971-2.4003105 1.6000038-3.2000077 6.4000152-12.0003333 19.2000457-19.9997428 33.60008-19.9997428 12.8000309 0 24.0000569 6.4000152 31.2003789 16.0000381 3.999705-1.6000038 8.000019-3.2000076 12.800031-3.9997048-8.800326-15.20034094-24.800364-24.8003638-44.0004099-24.8003638-21.6003562 0-40.0000952 13.6003371-48.0001143 32.8003829h-3.2000076c-23.1997505-.0012191-42.3997962 19.1988266-42.3997962 43.1988838 0 24.0000571 19.2000457 42.3997963 42.3997962 42.3997963h95.2005318c2.40031 5.600318 8.000019 9.600023 15.200341 9.600023 8.800325 0 16.000038-7.199713 16.000038-16.799736 0-9.600022-7.200322-16.0000376-16.800345-16.0000376zm52.800126-32.8003829c-9.600023-19.2000457-29.599766-32.7997733-51.999819-32.7997733-28.000372 0-51.200122 19.9997428-56.8004404 46.4001105-13.5997276 1.6000038-25.600061 8.7997162-32.7997734 19.2000457h69.6004708c4.800011-6.4000153 12.000333-9.6000229 19.999743-9.6000229 14.400034 0 25.600061 12.0003334 25.600061 26.3997585 0 14.399424-12.000334 26.399758-25.600061 26.399758-8.000019 0-15.200341-3.999705-19.999743-9.600023h-77.6010993c3.2000076 22.400053 22.4000533 40.000095 44.8001066 40.000095h104.0002477c28.800069 0 51.999819-23.19975 51.999819-52.800126 0-29.6003749-23.199141-52.7995158-51.199512-53.5998225z" fill="#008cdb"/></svg>

<?xml version="1.0" encoding="UTF-8" standalone="no"?>
<svg width="256px" height="169px" viewBox="0 0 256 169" version="1.1" xmlns="http://www.w3.org/2000/svg" xmlns:xlink="http://www.w3.org/1999/xlink" preserveAspectRatio="xMidYMid">
    <g>
        <path d="M152.000362,95.1993124 C145.600347,95.1993124 140.000029,99.1990171 136.800021,104.799335 L42.3997962,104.799335 C26.3997581,104.799335 13.5997276,91.1996076 13.5997276,75.1995695 C13.5997276,59.1995314 26.3997581,45.5998038 42.3997962,45.5998038 L55.9995238,45.5998038 C55.9995238,42.3997962 57.5995276,39.1997886 58.3998343,35.999781 C59.1995314,35.2000838 59.1995314,33.5994705 59.9998381,32.7997733 C66.3998533,20.79944 79.1998838,12.8000305 93.5999181,12.8000305 C106.399949,12.8000305 117.599975,19.2000457 124.800297,28.8000686 C128.800002,27.2000648 132.800316,25.600061 137.600328,24.8003638 C128.800002,9.60002286 112.799964,0 93.5999181,0 C71.9995619,0 53.5998229,13.6003371 45.5998038,32.8003829 L42.3997962,32.8003829 C19.2000457,32.7991638 0,51.9992095 0,75.9992667 C0,99.9993238 19.2000457,118.399063 42.3997962,118.399063 L137.600328,118.399063 C140.000638,123.999381 145.600347,127.999086 152.800669,127.999086 C161.600994,127.999086 168.800707,120.799373 168.800707,111.19935 C168.800707,101.599328 161.600385,95.1993124 152.000362,95.1993124 Z M204.800488,62.3989295 C195.200465,43.1988838 175.200722,29.5991562 152.800669,29.5991562 C124.800297,29.5991562 101.600547,49.598899 96.0002286,75.9992667 C82.400501,77.5992705 70.4001676,84.7989829 63.2004552,95.1993124 L132.800926,95.1993124 C137.600937,88.7992971 144.801259,85.5992895 152.800669,85.5992895 C167.200703,85.5992895 178.40073,97.5996229 178.40073,111.999048 C178.40073,126.398472 166.400396,138.398806 152.800669,138.398806 C144.80065,138.398806 137.600328,134.399101 132.800926,128.798783 L55.1998267,128.798783 C58.3998343,151.198836 77.59988,168.798878 99.9999333,168.798878 L204.000181,168.798878 C232.80025,168.798878 256,145.599128 256,115.998752 C256,86.3983771 232.800859,63.1992362 204.800488,62.3989295 Z" fill="#008CDB"></path>
    </g>
</svg>
